X: 28
T: Cliffs Of Moher, The
Z: cac
S: https://thesession.org/tunes/12#setting53839
R: jig
M: 6/8
L: 1/8
K: Gmaj
A3 |: d~ed cAG | d~ed cAG | ~F3 c3 | EGG c3 |
d~ed cAG | d~ed cAG | ~F3 cAF |1 DGG ~G2A :|2 D2G G (3Bcd ||
|:~g3 ~agf | d2g ~fdc | "dc"B2G ~AGF | DGG ABc |
g2g ~agf | d2g ~fdc | d~ed cAF |1 ~AGF G (3Bcd :|2 ~AGF ~G2A ||

